packages/icons/svg/Media_FullScreen_24px.svg

<svg xmlns="http://www.w3.org/2000/svg" viewBox="0 0 24 24"><path d="M6 7v10a1 1 0 001 1h10a1 1 0 001-1V7a1 1 0 00-1-1H7a1 1 0 00-1 1zm2 1h8v8H8zM3 8.39a1 1 0 001-1V4h3.38a1 1 0 000-2H3a1 1 0 00-1 1v4.39a1 1 0 001 1zM21 2h-4.38a1 1 0 100 2H20v3.38a1 1 0 002 0V3a1 1 0 00-1-1zM7.38 20H4v-3.39a1 1 0 00-2 0V21a1 1 0 001 1h4.38a1 1 0 100-2zM21 15.62a1 1 0 00-1 1V20h-3.38a1 1 0 000 2H21a1 1 0 001-1v-4.38a1 1 0 00-1-1z"/></svg>

<svg xmlns="http://www.w3.org/2000/svg" viewBox="0 0 24 24"><defs></defs><g id="Calque_5" ><path  d="M6,7V17a1,1,0,0,0,1,1H17a1,1,0,0,0,1-1V7a1,1,0,0,0-1-1H7A1,1,0,0,0,6,7ZM8,8h8v8H8Z"/><path  d="M3,8.39a1,1,0,0,0,1-1V4H7.38a1,1,0,0,0,0-2H3A1,1,0,0,0,2,3V7.39A1,1,0,0,0,3,8.39Z"/><path  d="M21,2H16.62a1,1,0,1,0,0,2H20V7.38a1,1,0,0,0,2,0V3A1,1,0,0,0,21,2Z"/><path  d="M7.38,20H4V16.61a1,1,0,0,0-2,0V21a1,1,0,0,0,1,1H7.38a1,1,0,1,0,0-2Z"/><path  d="M21,15.62a1,1,0,0,0-1,1V20H16.62a1,1,0,0,0,0,2H21a1,1,0,0,0,1-1V16.62A1,1,0,0,0,21,15.62Z"/></g></svg>
